X: 19784
T: Jer Mac's
R: polka
M: 2/4
K: Dmajor
|:Ad f/a/f/d/|cg Bc/B/|A/d/c/B/ eA|aA (3B/c/B/ A|
Ad f/a/f/d/|cg Bc/B/|AB/c/ e/g/f/e/|1 d3 B:|2 d3 f||
|:ad f/a/f/d/|cg Bc/B/|A/d/c/B/ eA|aA (3B/c/B/ A|
ad af/d/|cB gB|AB/c/ e/g/f/e/|1 d3 f:|2 d3 B||

